X: 3353
T: Belly Full Of Berries
R: jig
M: 6/8
K: Eminor
|:EEE GAB|eed efg|fdA GFD|dAG FAD
EEE GAB|eed efg|fdA GFd|AGF E3:|
ege aeb|age ged|Bde dBA|Bde dBA|
ege aeb|age ged|dAG FDd|AGF E3|
ege aeb|age ged|Bde dBA|dAG FED|
EEE GAB|eed efg|fdA GFd|AGF E3|

